!! 00000] TT[WS
!!!OTL: Hai tai
!!!ARE: Asia, China, Shanxi Pinjie
!! Ethnic Group: Han
!! WII, 161 (2)
!!!SCT: J0643
!!!YEM: Copyright 1995, estate of Helmut Schaffrath.
**kern
*ICvox
*Ivox
*M2/4
*k[f#]
*G:
{8dd
8dd
16ee
16gg
16ee
16dd
=1
16a
16b
16a
16g
4a
=2
8g
8g
16a
16g
16f#
16e
=3
16d
16e
16d
16A
4d}
=4
{8g
8g
16a
16g
16f#
16e
=5
8d
8dd
8a
16b
16a
=6
8e
8d
16g
16g
16g
16a
=7
16e
16d
8c
4d}
==
!!!AGN: Xiaodiao. Aisu
!!!ONB: ESAC (Essen Associative Code) Database: CHINA
!!!AMT: simple duple
!!!AIN: vox
!!!EED: Helmut Schaffrath
!!!EEV: 1.0
*-
